symbols/web/looks_3/materialsymbolsoutlined/looks_3_48px.svg

<svg xmlns="http://www.w3.org/2000/svg" height="48" width="48"><path d="M18.25 34.15h8.5q1.2 0 2.1-.9.9-.9.9-2.1V26.8q0-1.35-.725-2.125Q28.3 23.9 27.3 23.9q1 0 1.725-.675.725-.675.725-2.075v-4.3q0-1.2-.9-2.1-.9-.9-2.1-.9h-8.5v3h8.5v5.55H22.4v3h4.35v5.75h-8.5ZM9 42q-1.2 0-2.1-.9Q6 40.2 6 39V9q0-1.2.9-2.1Q7.8 6 9 6h30q1.2 0 2.1.9.9.9.9 2.1v30q0 1.2-.9 2.1-.9.9-2.1.9Zm0-3h30V9H9v30ZM9 9v30V9Z"/></svg>

<svg xmlns="http://www.w3.org/2000/svg" height="48" width="48"><path d="M18.25 34.15H26.75Q27.95 34.15 28.85 33.25Q29.75 32.35 29.75 31.15V26.8Q29.75 25.45 29.025 24.675Q28.3 23.9 27.3 23.9Q28.3 23.9 29.025 23.225Q29.75 22.55 29.75 21.15V16.85Q29.75 15.65 28.85 14.75Q27.95 13.85 26.75 13.85H18.25V16.85H26.75Q26.75 16.85 26.75 16.85Q26.75 16.85 26.75 16.85V22.4Q26.75 22.4 26.75 22.4Q26.75 22.4 26.75 22.4H22.4V25.4H26.75Q26.75 25.4 26.75 25.4Q26.75 25.4 26.75 25.4V31.15Q26.75 31.15 26.75 31.15Q26.75 31.15 26.75 31.15H18.25ZM9 42Q7.8 42 6.9 41.1Q6 40.2 6 39V9Q6 7.8 6.9 6.9Q7.8 6 9 6H39Q40.2 6 41.1 6.9Q42 7.8 42 9V39Q42 40.2 41.1 41.1Q40.2 42 39 42ZM9 39H39Q39 39 39 39Q39 39 39 39V9Q39 9 39 9Q39 9 39 9H9Q9 9 9 9Q9 9 9 9V39Q9 39 9 39Q9 39 9 39ZM9 9Q9 9 9 9Q9 9 9 9V39Q9 39 9 39Q9 39 9 39Q9 39 9 39Q9 39 9 39V9Q9 9 9 9Q9 9 9 9Z"/></svg>
